modules/feathericon/icons/file-image.svg

<?xml version="1.0" encoding="UTF-8"?>
<svg width="24px" height="24px" viewBox="0 0 24 24" version="1.1" xmlns="http://www.w3.org/2000/svg" xmlns:xlink="http://www.w3.org/1999/xlink">
    <!-- Generator: sketchtool 52.2 (67145) - http://www.bohemiancoding.com/sketch -->
    <title>file-image</title>
    <desc>Created with sketchtool.</desc>
    <g id="file-types" stroke="none" stroke-width="1" fill="none" fill-rule="evenodd">
        <g id="file-image" fill="#000000">
            <path d="M6,2 L16,2 L20,6 L20,20 C20,21.1045695 19.1045695,22 18,22 L6,22 C4.8954305,22 4,21.1045695 4,20 L4,4 C4,2.8954305 4.8954305,2 6,2 Z M15.1715729,4 L6,4 L6,20 L18,20 L18,6.82842712 L15.1715729,6.82842712 L15.1715729,4 Z M15,14 C14.4477153,14 14,13.5522847 14,13 C14,12.4477153 14.4477153,12 15,12 C15.5522847,12 16,12.4477153 16,13 C16,13.5522847 15.5522847,14 15,14 Z M8,16 L11.0703361,13 L14,16 L15,15 L16,16 L16,18 L8,18 L8,16 Z" id="Shape"></path>
        </g>
    </g>
</svg>

<svg width="24" height="24" viewBox="0 0 24 24" xmlns="http://www.w3.org/2000/svg"><path d="M6 2h10l4 4v14a2 2 0 0 1-2 2H6a2 2 0 0 1-2-2V4a2 2 0 0 1 2-2zm9.172 2H6v16h12V6.828h-2.828V4zM15 14a1 1 0 1 1 0-2 1 1 0 0 1 0 2zm-7 2l3.07-3L14 16l1-1 1 1v2H8v-2z" fill="#000" fill-rule="evenodd"/></svg>
